la/product-hunt.svg

<svg xmlns="http://www.w3.org/2000/svg" viewBox="0 0 32 32" height="1em" width="1em">
  <path d="M16 3C8.832 3 3 8.832 3 16s5.832 13 13 13 13-5.832 13-13S23.168 3 16 3zm0 2c6.065 0 11 4.935 11 11s-4.935 11-11 11S5 22.065 5 16 9.935 5 16 5zm-3 6v11h2v-4h2.5c1.931 0 3.5-1.569 3.5-3.5S19.431 11 17.5 11H13zm2 2h2.5c.827 0 1.5.673 1.5 1.5s-.673 1.5-1.5 1.5H15v-3z"/>
</svg>

<svg xmlns="http://www.w3.org/2000/svg" viewBox="0 0 32 32" height="1em" width="1em">
  <path d="M 16 3 C 8.832 3 3 8.832 3 16 C 3 23.168 8.832 29 16 29 C 23.168 29 29 23.168 29 16 C 29 8.832 23.168 3 16 3 z M 16 5 C 22.065 5 27 9.935 27 16 C 27 22.065 22.065 27 16 27 C 9.935 27 5 22.065 5 16 C 5 9.935 9.935 5 16 5 z M 13 11 L 13 22 L 15 22 L 15 18 L 17.5 18 C 19.431 18 21 16.431 21 14.5 C 21 12.569 19.431 11 17.5 11 L 13 11 z M 15 13 L 17.5 13 C 18.327 13 19 13.673 19 14.5 C 19 15.327 18.327 16 17.5 16 L 15 16 L 15 13 z"/>
</svg>
